hornpipes/bobbycaseys.htmlhornpipes/bobbycaseys.htmlhornpipes/bobbycaseys.htmlhornpipes/bobbycaseys.htmlhornpipes/bobbycaseys.htmlhornpipes/bobbycaseys.htmlhornpipes/bobbycaseys.html<P ALIGN=Right>Junior Crehan
hornpipes/bobbycaseys.htmlhornpipes/bobbycaseys.html<PRE>T:I Have a House of My Own with a Chimney Built on Top of It
T:I Have a House of My Own with a Chimney Built on Top of It
M:9/8
L:1/8
C:Junior Crehan
R:slip jig
D:Lúnasa: Redwood
Z:Devin McCabe
K:BMin
BAF FEF ~F3|BAF FEF ~A2c|BAF FEF ~F2A|EFE EFA BAF:|
!cec e2c e2e|fec fec ecB|cec e2c e2c|BAB c2B AFE|
!cec e2c efa|fec fec ecB|fec ecB c3|BAB c2B AFE||
hornpipes/bobbycaseys.htmlhornpipes/bobbycaseys.htmlhornpipes/bobbycaseys.htmlhornpipes/bobbycaseys.htmlhornpipes/bobbycaseys.htmlhornpipes/bobbycaseys.htmlhornpipes/bobbycaseys.html